fs/plug_connected_24_regular.svg

<svg viewBox="0 0 24 24" fill="none" xmlns="http://www.w3.org/2000/svg" height="1em" width="1em">
  <path d="M19.4898 5.57084C20.2796 6.58684 20.7499 7.8635 20.7499 9.25001C20.7499 11.5333 19.4745 13.5187 17.5972 14.5327C16.9481 14.8833 16.1671 14.6672 15.6454 14.1455L9.85438 8.35451C9.33268 7.8328 9.1166 7.05181 9.46723 6.40265C10.4812 4.52541 12.4666 3.25001 14.7499 3.25001C16.1364 3.25001 17.4132 3.72034 18.4292 4.51016L20.7197 2.21967C21.0126 1.92678 21.4874 1.92678 21.7803 2.21967C22.0732 2.51256 22.0732 2.98744 21.7803 3.28033L19.4898 5.57084ZM17.4732 12.8331C18.5534 12.0106 19.2499 10.7106 19.2499 9.25001C19.2499 6.76473 17.2352 4.75001 14.7499 4.75001C13.2893 4.75001 11.9893 5.44648 11.1668 6.52671C10.9008 6.87593 10.9812 7.35998 11.2916 7.67036L16.3295 12.7083C16.6399 13.0187 17.124 13.0991 17.4732 12.8331ZM3.28033 21.7803L5.57072 19.4899C6.58673 20.2797 7.86339 20.75 9.24989 20.75C11.5332 20.75 13.5186 19.4746 14.5325 17.5973C14.8832 16.9482 14.6671 16.1672 14.1454 15.6455L8.35438 9.85448C7.83268 9.33278 7.05168 9.1167 6.40253 9.46733C4.52528 10.4813 3.24989 12.4667 3.24989 14.75C3.24989 16.1366 3.72022 17.4133 4.51005 18.4293L2.21967 20.7197C1.92678 21.0126 1.92678 21.4874 2.21967 21.7803C2.51256 22.0732 2.98744 22.0732 3.28033 21.7803ZM7.67023 11.2917L12.7082 16.3296C13.0186 16.64 13.0989 17.1241 12.833 17.4733C12.0105 18.5535 10.7105 19.25 9.24989 19.25C6.76461 19.25 4.74989 17.2353 4.74989 14.75C4.74989 13.2894 5.44635 11.9894 6.52659 11.1669C6.87581 10.9009 7.35985 10.9813 7.67023 11.2917Z" fill="#212121"/>
</svg>

<svg viewBox="0 0 24 24" fill="none" xmlns="http://www.w3.org/2000/svg" height="1em" width="1em">
  <path d="M19.49 5.57a5.999 5.999 0 0 1-1.893 8.962c-.649.351-1.43.135-1.952-.386l-5.79-5.791c-.522-.522-.738-1.303-.388-1.952A5.999 5.999 0 0 1 18.43 4.51l2.29-2.29a.75.75 0 1 1 1.061 1.06l-2.29 2.29Zm-2.017 7.263a4.5 4.5 0 1 0-6.306-6.306c-.266.349-.186.833.125 1.143l5.037 5.038c.31.31.795.391 1.144.125ZM3.28 21.78l2.29-2.29a5.999 5.999 0 0 0 8.962-1.893c.351-.649.135-1.43-.387-1.952l-5.79-5.79c-.522-.522-1.303-.738-1.952-.388A5.999 5.999 0 0 0 4.51 18.43l-2.29 2.29a.75.75 0 1 0 1.06 1.061Zm4.39-10.488 5.038 5.038c.31.31.39.794.125 1.143a4.5 4.5 0 1 1-6.306-6.306c.349-.266.833-.186 1.143.125Z" fill="#212121"/>
</svg>
